lib/preview/nrk-logo-preview-nrk-finnmark-title-right-on-light.svg

<svg width="113" height="24" viewBox="0 0 113 24" fill="none" xmlns="http://www.w3.org/2000/svg">
<path d="M0 17.9975V5.99856H4V17.9975H0ZM9.24381 7.90825L11.5081 17.9975H7.19917L4.49549 5.99856H6.91217C7.46635 5.99136 8.00406 6.18672 8.4245 6.54786C8.84562 6.89385 9.08495 7.37416 9.24381 7.90825ZM12 17.9975V5.99856H16V17.9975H12ZM19.0105 10.5616C18.5862 10.5657 18.1687 10.4547 17.8025 10.2404C17.4412 10.0316 17.1411 9.73142 16.9323 9.37006C16.7178 9.0038 16.6068 8.58623 16.611 8.16178C16.6061 7.73993 16.7172 7.32485 16.9323 6.96189C17.1433 6.60446 17.4431 6.30756 17.8025 6.09999C18.1689 5.88597 18.5862 5.77498 19.0105 5.77885C19.4322 5.77431 19.8471 5.8854 20.2102 6.09999C20.566 6.30938 20.8626 6.60603 21.072 6.96189C21.2868 7.32495 21.3979 7.73996 21.3933 8.16178C21.3973 8.58619 21.2863 9.00369 21.072 9.37006C20.8649 9.72984 20.5679 10.0297 20.2102 10.2404C19.8471 10.4554 19.4324 10.5666 19.0105 10.5616ZM22 17.9975V5.99856H26V17.9975H22ZM30.9737 12.5557C30.9848 12.5673 31.0693 12.7053 31.2272 12.9697C31.3851 13.2341 31.5906 13.5721 31.8439 13.9838C32.0974 14.3952 32.3649 14.8317 32.6463 15.2935C32.9278 15.7552 33.1926 16.1918 33.4408 16.6032C33.6881 17.0147 33.9697 17.4794 34.2857 17.9975H29.9598C29.6893 17.5581 29.4441 17.1609 29.2245 16.806C29.0048 16.4511 28.7713 16.068 28.5238 15.6568C28.2758 15.246 28.0306 14.846 27.7882 14.4569C27.5458 14.0679 27.3375 13.7271 27.1633 13.4345C26.9883 13.1418 26.8671 12.9446 26.7997 12.843C26.6325 12.5909 26.5336 12.2998 26.5127 11.998C26.5294 11.7084 26.6226 11.4284 26.7828 11.1866C26.8503 11.0739 26.9743 10.8739 27.1545 10.5866C27.3348 10.2993 27.546 9.95852 27.7882 9.56419C28.0304 9.16986 28.2756 8.76707 28.5238 8.35584C28.772 7.94461 29.0055 7.5587 29.2245 7.19817C29.4445 6.83802 29.6897 6.43805 29.9598 5.99828H34.2857L30.9396 11.457C30.8361 11.619 30.7777 11.8058 30.7706 11.998C30.7818 12.1998 30.8528 12.3938 30.9737 12.5557Z" fill="#0A2343"/>
<g clip-path="url(#clip0_5919_2973)">
<path d="M39 6.00058H46.9101V7.48795H40.7747V11.5782H45.4904L45.3044 13.0487H40.7747V18.001H39V6.00058ZM50.0454 5.67099C49.8708 5.56394 49.6764 5.51042 49.4623 5.51042C49.2482 5.51042 49.051 5.56394 48.8707 5.67099C48.6905 5.77804 48.5468 5.91889 48.4397 6.09354C48.3327 6.26819 48.2792 6.46257 48.2792 6.67666C48.2792 6.89075 48.3327 7.08794 48.4397 7.26823C48.5468 7.44851 48.6905 7.58936 48.8707 7.69077C49.051 7.79219 49.2482 7.84289 49.4623 7.84289C49.6764 7.84289 49.8708 7.79219 50.0454 7.69077C50.2201 7.58936 50.3581 7.44851 50.4595 7.26823C50.5609 7.08794 50.6116 6.89075 50.6116 6.67666C50.6116 6.46257 50.5609 6.26819 50.4595 6.09354C50.3581 5.91889 50.2201 5.77804 50.0454 5.67099ZM48.5665 18.001H50.2905V9.21195L48.5665 9.46548V18.001ZM59.5528 9.54999C59.1246 9.31336 58.5837 9.19505 57.9302 9.19505C57.4457 9.19505 56.964 9.27111 56.4851 9.42323C56.0062 9.57534 55.5527 9.79225 55.1245 10.074C54.9611 10.181 54.8033 10.2993 54.6512 10.4204V9.21195L52.9272 9.46548V18.001H54.6512V11.581C54.8174 11.4853 54.9864 11.3951 55.1667 11.3162C55.409 11.2092 55.6512 11.1162 55.8935 11.0374C56.1358 10.9585 56.378 10.8993 56.6203 10.8599C56.8626 10.8205 57.0964 10.8007 57.3217 10.8007C57.6372 10.8007 57.9077 10.843 58.133 10.9275C58.3584 11.012 58.5443 11.1388 58.6908 11.3078C58.8373 11.4768 58.9443 11.6909 59.0119 11.9501C59.0795 12.2092 59.1133 12.5135 59.1133 12.8628V18.001H60.8373V12.5078C60.8373 11.7416 60.7303 11.1162 60.5162 10.6317C60.3021 10.1472 59.981 9.78662 59.5528 9.54999ZM70.0151 9.54999C69.5869 9.31336 69.0461 9.19505 68.3925 9.19505C67.908 9.19505 67.4263 9.27111 66.9474 9.42323C66.4685 9.57534 66.015 9.79225 65.5868 10.074C65.4234 10.181 65.2656 10.2993 65.1135 10.4204V9.21195L63.3895 9.46548V18.001H65.1135V11.581C65.2769 11.4853 65.4488 11.3951 65.629 11.3162C65.8713 11.2092 66.1136 11.1162 66.3558 11.0374C66.5981 10.9585 66.8403 10.8993 67.0826 10.8599C67.3249 10.8205 67.5587 10.8007 67.784 10.8007C68.0995 10.8007 68.37 10.843 68.5953 10.9275C68.8207 11.012 69.0066 11.1388 69.1531 11.3078C69.2996 11.4768 69.4066 11.6909 69.4742 11.9501C69.5418 12.2092 69.5756 12.5135 69.5756 12.8628V18.001H71.2996V12.5078C71.2996 11.7416 71.1926 11.1162 70.9785 10.6317C70.7644 10.1472 70.4433 9.78662 70.0151 9.54999ZM85.5311 9.54999C85.1255 9.31336 84.624 9.19505 84.0268 9.19505C83.5648 9.19505 83.1198 9.27111 82.6916 9.42323C82.2634 9.57534 81.8577 9.79225 81.4746 10.074C81.2662 10.2261 81.0662 10.3979 80.8746 10.581C80.6774 10.1331 80.3901 9.79225 80.0042 9.56689C79.5985 9.33026 79.0915 9.21195 78.483 9.21195C78.0323 9.21195 77.59 9.28801 77.1562 9.44013C76.7224 9.59224 76.3139 9.80634 75.9308 10.0824C75.8097 10.1697 75.6913 10.2655 75.5758 10.3641V9.21195L73.8518 9.46548V18.001H75.5758V11.5726C75.7815 11.4402 75.9928 11.3162 76.2097 11.2148C76.4857 11.0853 76.7646 10.9867 77.0463 10.919C77.328 10.8514 77.5984 10.8176 77.8576 10.8176C78.1506 10.8176 78.3957 10.8599 78.5928 10.9444C78.79 11.0289 78.9562 11.1529 79.0915 11.3162C79.2267 11.4796 79.3253 11.6937 79.3872 11.9585C79.4492 12.2233 79.4802 12.5304 79.4802 12.8797V18.001H81.2042V12.5247C81.2042 12.1726 81.1817 11.8515 81.1394 11.5585C81.3394 11.4289 81.5394 11.3106 81.7451 11.2064C82.0155 11.0712 82.2916 10.9698 82.5733 10.9021C82.855 10.8345 83.131 10.8007 83.4015 10.8007C83.6719 10.8007 83.9254 10.843 84.1282 10.9275C84.3311 11.012 84.5001 11.136 84.6353 11.2993C84.7705 11.4627 84.8691 11.6768 84.9311 11.9416C84.993 12.2064 85.024 12.5135 85.024 12.8628V18.001H86.748V12.5078C86.748 11.7416 86.6466 11.1162 86.4438 10.6317C86.241 10.1472 85.9367 9.78662 85.5311 9.54999ZM96.8554 16.9192C96.9456 16.908 97.0413 16.8854 97.1427 16.8516L96.9568 17.9841C96.9005 18.0066 96.8357 18.0263 96.7625 18.0432C96.6892 18.0601 96.6075 18.0798 96.5174 18.1024C96.4272 18.1249 96.3343 18.139 96.2385 18.1446C96.1427 18.1503 96.0441 18.1531 95.9427 18.1531C95.5821 18.1531 95.261 18.0939 94.9793 17.9756C94.6976 17.8573 94.4779 17.6657 94.3201 17.4009C94.2356 17.2601 94.1764 17.0939 94.137 16.9023C94.03 17.0263 93.9201 17.1474 93.8046 17.2573C93.4947 17.5503 93.1398 17.7756 92.7398 17.9334C92.3398 18.0911 91.8637 18.17 91.3116 18.17C90.7144 18.17 90.2158 18.0573 89.8157 17.832C89.4157 17.6066 89.1171 17.3108 88.9199 16.9446C88.7228 16.5784 88.6242 16.1812 88.6242 15.753C88.6242 15.3023 88.7509 14.8882 89.0044 14.5107C89.258 14.1332 89.6439 13.8206 90.1622 13.5727C90.6806 13.3248 91.3341 13.1783 92.1229 13.1332L94.0976 13.0008V12.5783C94.0976 12.2515 94.0666 11.967 93.999 11.7247C93.9314 11.4824 93.8187 11.2824 93.6609 11.1247C93.5032 10.9669 93.2863 10.8486 93.0102 10.7697C92.7341 10.6909 92.3933 10.6514 91.9877 10.6514C91.7623 10.6514 91.5341 10.6599 91.3031 10.6768C91.0721 10.6937 90.8383 10.7247 90.6017 10.7697C90.3651 10.8148 90.12 10.8712 89.8665 10.9388C89.6129 11.0064 89.3453 11.0909 89.0636 11.1923L89.2664 9.75563C89.5481 9.64295 89.8439 9.54436 90.1538 9.45985C90.4637 9.37534 90.7932 9.31055 91.1426 9.26547C91.4919 9.2204 91.8468 9.19787 92.2074 9.19787C92.7032 9.19787 93.1483 9.24294 93.5426 9.33308C93.937 9.42323 94.2779 9.55281 94.5652 9.72183C94.8525 9.89085 95.0863 10.0993 95.2666 10.3472C95.4469 10.5951 95.5821 10.8824 95.6723 11.2092C95.7624 11.536 95.8075 11.8965 95.8075 12.2909L95.7737 15.7727C95.7624 16.1896 95.8244 16.4882 95.9596 16.6685C96.0948 16.8488 96.3146 16.939 96.6188 16.939C96.6864 16.939 96.7653 16.9333 96.8554 16.9221V16.9192ZM94.0863 15.9079L94.0948 14.2318H92.6158C92.0637 14.2318 91.6243 14.2769 91.2975 14.367C90.9707 14.4572 90.7341 14.598 90.5876 14.7896C90.4411 14.9812 90.3679 15.246 90.3679 15.584C90.3679 15.8432 90.4242 16.0657 90.5369 16.2516C90.6496 16.4375 90.8158 16.5812 91.0355 16.6826C91.2552 16.784 91.5228 16.8347 91.8384 16.8347C92.0862 16.8347 92.3257 16.8122 92.5567 16.7671C92.7877 16.7221 93.0074 16.6488 93.2159 16.5474C93.4243 16.446 93.6215 16.322 93.8074 16.1756C93.906 16.0967 93.999 16.0065 94.0891 15.9108L94.0863 15.9079ZM102.281 9.319C101.965 9.40351 101.667 9.53309 101.385 9.70774C101.103 9.8824 100.839 10.0937 100.591 10.3416C100.551 10.381 100.512 10.4261 100.472 10.4683V9.20913L98.7484 9.46266V17.9982H100.472V11.612C100.602 11.5219 100.734 11.4374 100.87 11.3641C101.044 11.2684 101.219 11.1867 101.394 11.1191C101.568 11.0514 101.746 10.9923 101.926 10.9416C102.106 10.8909 102.295 10.8543 102.492 10.8317C102.689 10.8092 102.895 10.8036 103.109 10.8148L103.312 9.22604C102.94 9.2035 102.596 9.23449 102.281 9.319ZM110.09 17.9982H112.321L108.222 13.3783L112.236 9.37815H110.123L107.23 12.5557H106.608V5.23999L104.884 5.49352V18.001H106.608V13.86H106.636L110.09 18.001V17.9982Z" fill="#1767CE"/>
</g>
<defs>
<clipPath id="clip0_5919_2973">
<rect width="74" height="14" fill="white" transform="translate(39 5)"/>
</clipPath>
</defs>
</svg>

<svg xmlns="http://www.w3.org/2000/svg" viewBox="0 0 113 24"><path fill="#0A2343" d="M0 17.997V6h4v11.998H0ZM9.244 7.908l2.264 10.09H7.2l-2.704-12h2.417a2.276 2.276 0 0 1 1.513.55c.42.346.66.826.819 1.36ZM12 17.998v-12h4v12h-4Zm7.01-7.436a2.381 2.381 0 0 1-2.078-1.192 2.345 2.345 0 0 1-.321-1.208 2.301 2.301 0 0 1 .321-1.2A2.41 2.41 0 0 1 20.21 6.1c.356.21.653.506.862.862.215.363.326.778.321 1.2a2.35 2.35 0 0 1-.321 1.208 2.4 2.4 0 0 1-.862.87 2.3 2.3 0 0 1-1.2.322ZM22 17.997V6h4v11.998h-4Zm8.974-5.441c.01.011.095.15.253.414s.364.602.617 1.014a309.436 309.436 0 0 1 1.597 2.62c.247.41.529.875.845 1.393H29.96c-.27-.439-.516-.836-.736-1.191-.22-.355-.453-.738-.7-1.15-.248-.41-.493-.81-.736-1.2a60.12 60.12 0 0 1-.625-1.021 18.04 18.04 0 0 0-.363-.592 1.747 1.747 0 0 1-.287-.845c.016-.29.11-.57.27-.811.067-.113.191-.313.371-.6a182.106 182.106 0 0 0 1.37-2.23l.7-1.159.736-1.2h4.326l-3.346 5.459a1.079 1.079 0 0 0-.17.541c.012.202.083.396.204.558Z"/><g clip-path="url(#a)"><path fill="#1767CE" d="M39 6h7.91v1.488h-6.135v4.09h4.715l-.186 1.47h-4.53v4.953H39v-12Zm11.045-.329a1.094 1.094 0 0 0-.583-.16c-.214 0-.411.053-.591.16a1.24 1.24 0 0 0-.431.423c-.107.174-.16.369-.16.583a1.15 1.15 0 0 0 .591 1.014c.18.101.377.152.591.152.214 0 .409-.05.583-.152.175-.102.313-.242.414-.423.102-.18.153-.377.153-.591 0-.214-.051-.409-.153-.583a1.19 1.19 0 0 0-.414-.423Zm-1.479 12.33h1.724v-8.79l-1.724.254v8.536ZM59.553 9.55c-.428-.237-.97-.355-1.623-.355-.484 0-.966.076-1.445.228a5.488 5.488 0 0 0-1.36.651 6.356 6.356 0 0 0-.474.346V9.212l-1.724.253v8.536h1.724v-6.42c.166-.096.335-.186.516-.265.242-.107.484-.2.727-.279a4.87 4.87 0 0 1 .726-.177c.243-.04.476-.06.702-.06.315 0 .586.043.811.127.225.085.411.212.558.38.146.17.253.384.32.643.069.26.102.564.102.913V18h1.724v-5.493c0-.766-.107-1.392-.32-1.876-.215-.485-.536-.845-.964-1.082Zm10.462 0c-.428-.237-.969-.355-1.623-.355-.484 0-.966.076-1.445.228a5.488 5.488 0 0 0-1.36.651 6.356 6.356 0 0 0-.474.346V9.212l-1.724.253v8.536h1.724v-6.42c.164-.096.336-.186.516-.265.242-.107.485-.2.727-.279a4.87 4.87 0 0 1 .727-.177c.242-.04.476-.06.701-.06.316 0 .586.043.811.127.226.085.412.212.558.38.147.17.254.384.321.643.068.26.102.564.102.913V18H71.3v-5.493c0-.766-.107-1.392-.322-1.876-.214-.485-.535-.845-.963-1.082Zm15.516 0c-.406-.237-.907-.355-1.504-.355-.462 0-.907.076-1.335.228a4.707 4.707 0 0 0-1.217.651 5.964 5.964 0 0 0-.6.507c-.198-.448-.485-.789-.87-1.014-.406-.237-.913-.355-1.522-.355-.45 0-.893.076-1.327.228a4.81 4.81 0 0 0-1.58.924V9.212l-1.724.253v8.536h1.724v-6.428a5.44 5.44 0 0 1 .634-.358c.276-.13.555-.228.836-.296.282-.068.552-.101.812-.101.293 0 .538.042.735.126.197.085.363.209.498.372.136.164.234.378.296.643.062.264.093.571.093.92v5.122h1.724v-5.476c0-.352-.022-.674-.065-.966.2-.13.4-.248.606-.353a3.87 3.87 0 0 1 .828-.304c.282-.067.558-.101.829-.101.27 0 .523.042.726.127.203.084.372.208.507.371.135.164.234.378.296.643.062.264.093.572.093.92v5.139h1.724v-5.493c0-.766-.101-1.392-.304-1.876-.203-.485-.507-.845-.913-1.082Zm11.324 7.37c.09-.012.186-.035.288-.068l-.186 1.132a1.336 1.336 0 0 1-.194.06 13.24 13.24 0 0 0-.246.058c-.09.023-.183.037-.278.043a4.983 4.983 0 0 1-.296.008c-.36 0-.682-.06-.964-.177a1.365 1.365 0 0 1-.659-.575 1.58 1.58 0 0 1-.183-.499 4.98 4.98 0 0 1-.332.355c-.31.293-.665.519-1.065.676-.4.158-.876.237-1.428.237-.598 0-1.096-.113-1.496-.338a2.227 2.227 0 0 1-.896-.887 2.475 2.475 0 0 1-.296-1.192c0-.45.127-.865.38-1.242.254-.378.64-.69 1.158-.938.519-.248 1.172-.395 1.96-.44l1.976-.132v-.423c0-.326-.031-.611-.099-.853a1.337 1.337 0 0 0-.338-.6c-.158-.158-.375-.276-.65-.355a3.78 3.78 0 0 0-1.023-.119c-.226 0-.454.009-.685.026a6.157 6.157 0 0 0-.701.093 9.934 9.934 0 0 0-1.538.423l.202-1.437c.282-.113.578-.212.888-.296.31-.085.64-.15.989-.195.349-.045.704-.067 1.064-.067.496 0 .941.045 1.336.135.394.09.735.22 1.022.389.288.169.521.377.702.625.18.248.315.535.405.862.09.327.136.688.136 1.082l-.034 3.482c-.012.417.05.715.186.896.135.18.355.27.659.27.067 0 .146-.006.236-.017v-.003Zm-2.769-1.012.009-1.676h-1.48c-.551 0-.99.045-1.317.135-.327.09-.564.231-.71.423-.147.191-.22.456-.22.794 0 .26.056.482.169.668.113.186.279.33.498.43.22.102.488.153.803.153.248 0 .488-.023.719-.068.23-.045.45-.118.659-.22a2.762 2.762 0 0 0 .873-.637l-.003-.002Zm8.195-6.589a3.323 3.323 0 0 0-.896.389 4.4 4.4 0 0 0-.794.634c-.04.039-.079.084-.119.126V9.21l-1.724.254v8.535h1.724v-6.386a4.314 4.314 0 0 1 .922-.493 5.82 5.82 0 0 1 .532-.177 3.6 3.6 0 0 1 1.183-.127l.203-1.589a3.214 3.214 0 0 0-1.031.093Zm7.809 8.68h2.231l-4.099-4.62 4.014-4h-2.113l-2.893 3.177h-.622V5.24l-1.724.254V18h1.724V13.86h.028l3.454 4.141v-.003Z"/></g><defs><clipPath id="a"><path fill="#fff" d="M39 5h74v14H39z"/></clipPath></defs></svg>
